img/text-flowers/text-flower-1.svg

<svg width="95" height="90" fill="none" xmlns="http://www.w3.org/2000/svg"><path d="M31.875 0h-8.75L18.75 2.5l-2.5 3.125-2.5 5-1.875 7.5v8.75h-1.25l-3.75 1.875-4.375 5L0 41.875V52.5l1.25 6.25L5 67.5l3.125 5L15 79.375l6.875 4.375 6.25 2.5 9.375 2.5 7.5.625 4.375-.625H52.5l9.375-3.125 6.25-2.5 3.75-2.5 6.875-4.375L85 70l5-6.25 3.125-6.25L95 51.25V40.625l-1.25-3.75-3.75-5-5.625-3.125-3.75-.625.625-1.875V15.625l-.625-3.125-1.875-4.375-5-5.625L70 .625h-6.25l-6.25 2.5-6.25 5L50 11.25h-1.25l-1.25 2.5h-1.25L44.375 10h-1.25V8.75l-5-5L31.875 0z" fill="#82B86A"/><path d="M46.875 21.25l6.25 1.25 5 2.5 6.25 5.625-.625 2.5-3.125 3.125-4.375 5.625-4.375 9.375L48.75 62.5l-.625 3.75h-1.25l-2.5-10.625-3.75-9.375-4.375-6.875-.625-1.875h-1.25L30 32.5l.625-2.5 2.5-3.125 5.625-3.75 3.75-1.25 4.375-.625z" fill="#FCFCFC"/></svg>

<svg width="95" height="90" viewBox="0 0 95 90" fill="none" xmlns="http://www.w3.org/2000/svg">
<path d="M31.875 0H23.125L18.75 2.5L16.25 5.625L13.75 10.625L11.875 18.125V26.875H10.625L6.875 28.75L2.5 33.75L0 41.875V52.5L1.25 58.75L5 67.5L8.125 72.5L15 79.375L21.875 83.75L28.125 86.25L37.5 88.75L45 89.375L49.375 88.75H52.5L61.875 85.625L68.125 83.125L71.875 80.625L78.75 76.25L85 70L90 63.75L93.125 57.5L95 51.25V40.625L93.75 36.875L90 31.875L84.375 28.75L80.625 28.125L81.25 26.25V15.625L80.625 12.5L78.75 8.125L73.75 2.5L70 0.625H63.75L57.5 3.125L51.25 8.125L50 11.25H48.75L47.5 13.75H46.25L44.375 10H43.125V8.75L38.125 3.75L31.875 0Z" fill="#82B86A"/>
<path d="M46.875 21.25L53.125 22.5L58.125 25L64.375 30.625L63.75 33.125L60.625 36.25L56.25 41.875L51.875 51.25L48.75 62.5L48.125 66.25H46.875L44.375 55.625L40.625 46.25L36.25 39.375L35.625 37.5H34.375L30 32.5L30.625 30L33.125 26.875L38.75 23.125L42.5 21.875L46.875 21.25Z" fill="#FCFCFC"/>
</svg>
